icons/translate.svg

<svg xmlns="http://www.w3.org/2000/svg" width="24" height="24" fill="none"><g clip-path="url(#a)"><g><path fill="#121212" d="M5 15V17C4.99984 17.5046 5.19041 17.9906 5.5335 18.3605C5.87659 18.7305 6.34684 18.9572 6.85 18.995L7 19H10V21H7C5.93913 21 4.92172 20.5786 4.17157 19.8284C3.42143 19.0783 3 18.0609 3 17V15H5ZM18 10L22.4 21H20.245L19.044 18H14.954L13.755 21H11.601L16 10H18ZM17 12.885L15.753 16H18.245L17 12.885ZM8 2V4H12V11H8V14H6V11H2V4H6V2H8ZM17 3C18.0609 3 19.0783 3.42143 19.8284 4.17157C20.5786 4.92172 21 5.93913 21 7V9H19V7C19 6.46957 18.7893 5.96086 18.4142 5.58579C18.0391 5.21071 17.5304 5 17 5H14V3H17ZM6 6H4V9H6V6ZM10 6H8V9H10V6Z"/></g></g><defs><clipPath id="a"><rect width="24" height="24" fill="white"/></clipPath></defs></svg>

<svg width="24" height="24" fill="none" xmlns="http://www.w3.org/2000/svg"><g clip-path="url(#a)"><path d="M5 15v2a2 2 0 0 0 1.85 1.995L7 19h3v2H7a4 4 0 0 1-4-4v-2h2Zm13-5 4.4 11h-2.155l-1.201-3h-4.09l-1.199 3h-2.154L16 10h2Zm-1 2.885L15.753 16h2.492L17 12.885ZM8 2v2h4v7H8v3H6v-3H2V4h4V2h2Zm9 1a4 4 0 0 1 4 4v2h-2V7a2 2 0 0 0-2-2h-3V3h3ZM6 6H4v3h2V6Zm4 0H8v3h2V6Z" /></g><defs><clipPath id="a"><path fill="#fff" d="M0 0h24v24H0z"/></clipPath></defs></svg>
